X: 2
T: John Doherty's
R: mazurka
M: 3/4
L: 1/8
K: Gmaj
(3BA^G A2 d2|e2 B2 e>d|(3dcB c>A B>c|B>A F2 F>G|
(3BA^G A2 d2|e2 B2 e>d|(3dcB c>A B>c|d2 D2:|
e>d B>^G E>G|A>^G A>B c>d|f>e ^d>e =d>B|c>A E2 f>e|
e>d B2 (3EF^G|A>^G A2 (3cde|f>e ^d>e =d>^G|A2 A2:|
(3BA^G A2 d2|e2 B>e e>d|(3dcB c2 (3ABc|B>AF>B (3EFG|
B>^G A>F (3dcd|(3efe B3 d|(3dcB c>A B>c|d2 D2:|
D3 E F2|G2 G>A B2|(3cdc A2 d>c|(3BdB G2 (3GFE|
D2 D>E (3FED|G3 A B2|(3cdc A>F d>F|G2 G2:|

